assets/img/achieves/misc/license-ip.svg

<svg xmlns="http://www.w3.org/2000/svg" viewBox="0 0 1134 1134" style="background-color:#ffffff00">
  <defs>
    <radialGradient id="a" cx="53.3%" cy="17.8%" r="85.1%">
      <stop stop-color="#ffc44e" offset="0%"/>
      <stop stop-color="#e98642" offset="100%"/>
    </radialGradient>
  </defs>
  <path fill="#f0f0e1" d="M0 567C0 254 254 0 567 0s567 254 567 567-254 567-567 567S0 880 0 567z"/>
  <path fill="url(#a)" d="M400.5 356.5c0 59-67 139-130 139-36 0-51-27-51-56 0-56 63-138 129-138 37 0 52 26 52 55z"/>
  <path fill="#004a95" d="M209.5 536.5c0 2-7 13-10 21-21 48-30 87-30 133 0 118 83 177.5 188 177.5 98 0 206-47 302-121h168c-139 143-313 227-457 227-84 0-188.5-29.5-226.5-150.5-3-12-9-39-9-54v-36c5-68 27-136 67-204 3 3 7.5 4 7.5 7z"/>
  <path fill="#6ac7f0" d="M796.5 160.5c18 0 71 15 82 20 17 8 37 19 56 36 14 12 50.5 62 50.5 73 0 0 15 49 15 60v8.5H875c0-6-7.5-35-7.5-38 0-2-5-10.5-7-15.5-9-21-26-48-51-65-12-8-26-16-38-20-15-6-32-11-47-12-11-2-35-3-37-3-84 0-172 35-249 84-2-2-4-5-7-8 19-14 37-27 56-38 91-51 183-83 277-83l32 1z"/>
  <path fill="#004894" d="M768.5 436.5c0 30-24 49-49 49-28 0-49-22-49-49s21-48 49-48 49 21 49 48zm-205-17.5c-19 54-32 112-58 167-23 49-82 89-123 93-2 0-6 2-9 2H360v-63c29 1 71-23.5 89-60.5 18-36 27.5-78.5 39.5-114.5 3-8 6-16 8-24h67zm96 0c-13 37-58.5 164-58.5 175 0 23 41 23.5 48 23.5V681h-18c-59-7-93.5-41-93.5-87 0-32 14-54 25-89 9-29 20-57 30-86h67zm337 0c-4 8-8 17-12 26-3 7-7 14.5-10 22.5-3 5-5 12-8 18-5 10-11 22-16 34-4 8-26.5 48-26.5 54 0 29 30 45 61 44V681h-13c-31-4-68.5-12-95.5-51-49 39-98 44.5-147 49.5l-38 1c7-21 14-43 21-64 13 0 26-1 39-3 7-1 16-2 24-4 4-1 8-2.5 14-3.5 51-11 89-82 109-124h-117l21-63h194zm-261 18.5c0 10-9 16-16 16-11 0-16-8-16-17s5-16 16-16c10 0 16 7 16 17z"/>
  <path fill="#f0f0e1" d="M736.5 436.5c0 11-11 17-17 17-10 0-17-8-17-17s7-16 17-16c9 0 17 7 17 16z"/>
</svg>

<?xml version="1.0" standalone="no"?>
<!-- Generator: Adobe Fireworks 10, Export SVG Extension by Aaron Beall (http://fireworks.abeall.com) . Version: 0.6.1  -->
<!DOCTYPE svg PUBLIC "-//W3C//DTD SVG 1.1//EN" "http://www.w3.org/Graphics/SVG/1.1/DTD/svg11.dtd">
<svg id="ip_logo_t-%u30DA%u30FC%u30B8%201" viewBox="0 0 1134 1134" style="background-color:#ffffff00" version="1.1"
	xmlns="http://www.w3.org/2000/svg" xmlns:xlink="http://www.w3.org/1999/xlink" xml:space="preserve"
	x="0px" y="0px" width="1134px" height="1134px"
>
	<defs>
		<radialGradient id="gradient1" cx="53.3149%" cy="17.7835%" r="85.0515%">
			<stop stop-color="#ffc44e" stop-opacity="1" offset="0%"/>
			<stop stop-color="#e98642" stop-opacity="1" offset="100%"/>
		</radialGradient>
	</defs>
	<g id="%u80CC%u666F">
		<path id="%u6955%u5186%u5F62" d="M 0 567 C 0 253.8505 253.8505 0 567 0 C 880.1495 0 1134 253.8505 1134 567 C 1134 880.1495 880.1495 1134 567 1134 C 253.8505 1134 0 880.1495 0 567 Z" fill="#f0f0e1"/>
		<path d="M 400.5 356.5 C 400.5 415.5 333.5 495.5 270.5 495.5 C 234.5 495.5 219.5 468.5 219.5 439.5 C 219.5 383.5 282.5 301.5 348.5 301.5 C 385.5 301.5 400.5 327.5 400.5 356.5 Z" fill="url(#gradient1)"/>
		<path d="M 209.5 536.5 C 209.5 538.5 202.5 549.5 199.5 557.5 C 178.5 605.5 169.5 644.5 169.5 690.5 C 169.5 808.5 252.5 868 357.5 868 C 455.5 868 563.5 821 659.5 747 L 827.5 747 C 688.5 890 514.5 974 370.5 974 C 286.5 974 182 944.5 144 823.5 C 141 811.5 135 784.5 135 769.5 L 135 733.5 C 140 665.5 162 597.5 202 529.5 C 205 532.5 209.5 533.5 209.5 536.5 Z" fill="#004a95"/>
		<path d="M 796.5 160.5 C 814.5 160.5 867.5 175.5 878.5 180.5 C 895.5 188.5 915.5 199.5 934.5 216.5 C 948.5 228.5 985 278.5 985 289.5 C 985 289.5 1000 338.5 1000 349.5 L 1000 358 L 875 358 C 875 352 867.5 323 867.5 320 C 867.5 318 862.5 309.5 860.5 304.5 C 851.5 283.5 834.5 256.5 809.5 239.5 C 797.5 231.5 783.5 223.5 771.5 219.5 C 756.5 213.5 739.5 208.5 724.5 207.5 C 713.5 205.5 689.5 204.5 687.5 204.5 C 603.5 204.5 515.5 239.5 438.5 288.5 C 436.5 286.5 434.5 283.5 431.5 280.5 C 450.5 266.5 468.5 253.5 487.5 242.5 C 578.5 191.5 670.5 159.5 764.5 159.5 C 766.5 159.5 793.5 160.5 796.5 160.5 Z" fill="#6ac7f0"/>
		<path d="M 768.5 436.5 C 768.5 466.5 744.5 485.5 719.5 485.5 C 691.5 485.5 670.5 463.5 670.5 436.5 C 670.5 409.5 691.5 388.5 719.5 388.5 C 747.5 388.5 768.5 409.5 768.5 436.5 ZM 563.5 419 C 544.5 473 531.5 531 505.5 586 C 482.5 635 423.5 675 382.5 679 C 380.5 679 376.5 681 373.5 681 L 360 681 L 360 618 C 389 619 431 594.5 449 557.5 C 467 521.5 476.5 479 488.5 443 C 491.5 435 494.5 427 496.5 419 L 563.5 419 ZM 659.5 419 C 646.5 456 601 583 601 594 C 601 617 642 617.5 649 617.5 L 649 681 L 631 681 C 572 674 537.5 640 537.5 594 C 537.5 562 551.5 540 562.5 505 C 571.5 476 582.5 448 592.5 419 L 659.5 419 ZM 996.5 419 C 992.5 427 988.5 436 984.5 445 C 981.5 452 977.5 459.5 974.5 467.5 C 971.5 472.5 969.5 479.5 966.5 485.5 C 961.5 495.5 955.5 507.5 950.5 519.5 C 946.5 527.5 923.9999 567.5 923.9999 573.5 C 923.9999 602.5 954 618.5 985 617.5 L 985 681 L 972 681 C 940.9999 677 903.5 669 876.5 630 C 827.5 669 778.5 674.5 729.5 679.5 L 691.5 680.5 C 698.5 659.5 705.5 637.5 712.5 616.5 C 725.5 616.5 738.5 615.5 751.5 613.5 C 758.5 612.5 767.5 611.5 775.5 609.5 C 779.5 608.5 783.5 607 789.5 606 C 840.5 595 878.5 524 898.5 482 L 781.5 482 L 802.5 419 L 996.5 419 ZM 735.5 437.5 C 735.5 447.5 726.5 453.5 719.5 453.5 C 708.5 453.5 703.5 445.5 703.5 436.5 C 703.5 427.5 708.5 420.5 719.5 420.5 C 729.5 420.5 735.5 427.5 735.5 437.5 Z" fill="#004894"/>
		<path d="M 736.5 436.5 C 736.5 447.5 725.5 453.5 719.5 453.5 C 709.5 453.5 702.5 445.5 702.5 436.5 C 702.5 427.5 709.5 420.5 719.5 420.5 C 728.5 420.5 736.5 427.5 736.5 436.5 Z" fill="#f0f0e1"/>
	</g>
	<g id="%u30EC%u30A4%u30E4%u30FC%201">
	</g>
</svg>
